packages/core/src/svgs/c98.svg

<svg width="24" height="24" viewBox="0 0 24 24" fill="none" xmlns="http://www.w3.org/2000/svg">
<g clip-path="url(#clip0_31_7663)">
<path d="M0 0H24V24H0V0Z" fill="url(#paint0_linear_31_7663)"/>
<path fill-rule="evenodd" clip-rule="evenodd" d="M12 9.85728C12 10.7666 11.6387 11.6387 10.9958 12.2816C10.3528 12.9246 9.48071 13.2859 8.57139 13.2859C7.66208 13.2859 6.79001 12.9246 6.14703 12.2816C5.50405 11.6387 5.14282 10.7666 5.14282 9.85728C5.14282 8.94797 5.50405 8.0759 6.14703 7.43292C6.79001 6.78993 7.66208 6.42871 8.57139 6.42871C9.48071 6.42871 10.3528 6.78993 10.9958 7.43292C11.6387 8.0759 12 8.94797 12 9.85728ZM10.7143 9.85728C10.7143 10.4256 10.4885 10.9706 10.0866 11.3725C9.68476 11.7744 9.13971 12.0001 8.57139 12.0001C8.00307 12.0001 7.45803 11.7744 7.05616 11.3725C6.6543 10.9706 6.42854 10.4256 6.42854 9.85728C6.42854 9.28896 6.6543 8.74392 7.05616 8.34205C7.45803 7.94019 8.00307 7.71443 8.57139 7.71443C9.13971 7.71443 9.68476 7.94019 10.0866 8.34205C10.4885 8.74392 10.7143 9.28896 10.7143 9.85728ZM6.85711 14.143H5.57139C5.57139 14.537 5.64899 14.9271 5.79976 15.291C5.95052 15.655 6.1715 15.9857 6.45007 16.2643C6.72865 16.5429 7.05937 16.7639 7.42334 16.9146C7.78732 17.0654 8.17743 17.143 8.57139 17.143C8.96536 17.143 9.35547 17.0654 9.71944 16.9146C10.0834 16.7639 10.4141 16.5429 10.6927 16.2643C10.9713 15.9857 11.1923 15.655 11.343 15.291C11.4938 14.9271 11.5714 14.537 11.5714 14.143H10.2857C10.2857 14.5977 10.1051 15.0337 9.78358 15.3552C9.46209 15.6767 9.02605 15.8573 8.57139 15.8573C8.11674 15.8573 7.6807 15.6767 7.35921 15.3552C7.03772 15.0337 6.85711 14.5977 6.85711 14.143ZM9.42854 9.85728C9.42826 10.0175 9.38306 10.1745 9.29807 10.3104C9.21308 10.4462 9.09171 10.5555 8.94773 10.6259C8.80376 10.6962 8.64294 10.7248 8.48353 10.7084C8.32412 10.692 8.17251 10.6312 8.04591 10.5329C7.91931 10.4347 7.82278 10.3029 7.76729 10.1526C7.71179 10.0023 7.69956 9.83939 7.73196 9.68245C7.76437 9.52551 7.84012 9.38079 7.95062 9.26473C8.06112 9.14867 8.20195 9.06592 8.35711 9.02585V8.57157H8.78568V9.02585C8.96992 9.07342 9.13309 9.18095 9.24949 9.33148C9.36588 9.48202 9.42887 9.667 9.42854 9.85728ZM15.4285 10.2859C16.3379 10.2859 17.2099 10.6471 17.8529 11.2901C18.4959 11.933 18.8571 12.8051 18.8571 13.7144C18.8571 14.6237 18.4959 15.4958 17.8529 16.1388C17.2099 16.7818 16.3379 17.143 15.4285 17.143C14.5192 17.143 13.6472 16.7818 13.0042 16.1388C12.3612 15.4958 12 14.6237 12 13.7144C12 12.8051 12.3612 11.933 13.0042 11.2901C13.6472 10.6471 14.5192 10.2859 15.4285 10.2859ZM15.4285 11.5716C15.9969 11.5716 16.5419 11.7973 16.9438 12.1992C17.3456 12.6011 17.5714 13.1461 17.5714 13.7144C17.5714 14.2827 17.3456 14.8278 16.9438 15.2297C16.5419 15.6315 15.9969 15.8573 15.4285 15.8573C14.8602 15.8573 14.3152 15.6315 13.9133 15.2297C13.5114 14.8278 13.2857 14.2827 13.2857 13.7144C13.2857 13.1461 13.5114 12.6011 13.9133 12.1992C14.3152 11.7973 14.8602 11.5716 15.4285 11.5716ZM16.2857 13.7144C16.2854 13.5542 16.2402 13.3972 16.1552 13.2614C16.0702 13.1255 15.9489 13.0162 15.8049 12.9458C15.6609 12.8755 15.5001 12.8469 15.3407 12.8633C15.1813 12.8797 15.0297 12.9405 14.9031 13.0388C14.7765 13.137 14.6799 13.2688 14.6244 13.4191C14.5689 13.5694 14.5567 13.7323 14.5891 13.8893C14.6215 14.0462 14.6973 14.1909 14.8078 14.307C14.9183 14.423 15.0591 14.5058 15.2143 14.5459V15.0001H15.6428V14.5459C15.8271 14.4983 15.9902 14.3908 16.1066 14.2402C16.223 14.0897 16.286 13.9047 16.2857 13.7144ZM15.4285 6.42871C15.9337 6.429 16.4306 6.55684 16.8732 6.80038C17.3157 7.04393 17.6896 7.39528 17.9602 7.82186C18.2308 8.24845 18.3892 8.73645 18.4209 9.24061C18.4526 9.74477 18.3564 10.2488 18.1414 10.7059C17.8163 10.4124 17.4458 10.1736 17.0443 9.99871C17.136 9.7401 17.1642 9.46326 17.1267 9.19145C17.0892 8.91964 16.987 8.6608 16.8287 8.43669C16.6704 8.21258 16.4606 8.02975 16.2169 7.90356C15.9733 7.77736 15.7029 7.7115 15.4285 7.7115C15.1542 7.7115 14.8838 7.77736 14.6401 7.90356C14.3965 8.02975 14.1867 8.21258 14.0284 8.43669C13.8701 8.6608 13.7679 8.91964 13.7303 9.19145C13.6928 9.46326 13.7211 9.7401 13.8128 9.99871C13.4057 10.1744 13.0371 10.4144 12.7157 10.7059C12.5006 10.2488 12.4045 9.74477 12.4362 9.24061C12.4678 8.73645 12.6263 8.24845 12.8969 7.82186C13.1674 7.39528 13.5413 7.04393 13.9839 6.80038C14.4265 6.55684 14.9234 6.429 15.4285 6.42871Z" fill="#0A0000"/>
</g>
<defs>
<linearGradient id="paint0_linear_31_7663" x1="0" y1="12" x2="24" y2="12" gradientUnits="userSpaceOnUse">
<stop stop-color="#D4AD50"/>
<stop offset="0.83" stop-color="#EED362"/>
</linearGradient>
<clipPath id="clip0_31_7663">
<rect width="24" height="24" fill="white"/>
</clipPath>
</defs>
</svg>

<svg xmlns="http://www.w3.org/2000/svg" width="24" height="24" fill="none" viewBox="0 0 24 24"><g clip-path="url(#a)"><path fill="url(#b)" d="M0 0h24v24H0z"/><path fill="#0A0000" fill-rule="evenodd" d="M12 9.857a3.429 3.429 0 1 1-6.857 0 3.429 3.429 0 0 1 6.857 0m-1.286 0a2.143 2.143 0 1 1-4.285 0 2.143 2.143 0 0 1 4.285 0m-3.857 4.286H5.571a3 3 0 1 0 6 0h-1.285a1.714 1.714 0 1 1-3.429 0M9.43 9.857a.857.857 0 1 1-1.072-.831v-.454h.429v.454a.86.86 0 0 1 .643.831m6 .429a3.428 3.428 0 1 1 0 6.857 3.428 3.428 0 0 1 0-6.857m0 1.286a2.143 2.143 0 1 1 0 4.285 2.143 2.143 0 0 1 0-4.285m.857 2.142a.857.857 0 1 0-1.072.832V15h.429v-.454a.86.86 0 0 0 .643-.832m-.858-7.285a3 3 0 0 1 2.713 4.277 4 4 0 0 0-1.097-.707 1.714 1.714 0 1 0-3.231 0 4 4 0 0 0-1.097.707 3 3 0 0 1 2.713-4.277" clip-rule="evenodd"/></g><defs><linearGradient id="b" x1="0" x2="24" y1="12" y2="12" gradientUnits="userSpaceOnUse"><stop stop-color="#D4AD50"/><stop offset=".83" stop-color="#EED362"/></linearGradient><clipPath id="a"><path fill="#fff" d="M0 0h24v24H0z"/></clipPath></defs></svg>
